X:222
T: KOMMT LASST UNS AUSSPAZIEREN
N: B0265
O: Europa, Mitteleuropa, Deutschland
R: Stimmungs - Lied, Sehnsucht, Liebe
M: 6/8
L: 1/8
K: Bb
F | B2BBAB | c2AF2
F | B2BcBc | d3z2
F | d2ddcd | e3d2
d | cdeFGA | B3z2

